X: 769
T: Firâkın Sînemi Dağlar
C: Mahmud Celâleddin Paşa
O: Turkey
F: http://compmusic.upf.edu/node/140
N: sabazemzeme--sarki--aksak--firakin_sinemi--mahmud_celaleddin_pasa
N: makam= sabazemzeme
N: form= sarki
N: usul= aksak = 9/8
M: 9/8
L: 1/16
K: C _1/4B _7/8d  
Q: 1/4=144
%%MIDI tuningsystem comma53
z4 c2_3/4d2 c4 d4 e2 | _3/4d3cB2 d2c2 d2c4B2  | \
w:   |   | 
A3G A2B2 c_3/4dcB c6 | 
w:   | 
z4A2 _B2c2 _e2=d2 c2B2  | A4 _B4 c2BA A6 | \
w:   |   | 
_BA G2c4B3AA4z2  | 
w:   | 
z4 c2_3/4d2 c4 d4 e2 | _3/4d3cB2 d2c2 d2c4B2  | \
w:   |   | 
A3G A2B2 c_3/4dcB c6 | 
w:   | 
z4A2 _B2c2 _e2=d2 c2B2  | A4 _B4 c2BA A6 | \
w:   |   | 
_BA G2c4B3AA4z2  | 
w:   | 
z4 A2B2 c_3/4dcB c6 | _3/4d3cB2 d2c2 d2c4B2  | \
w:  Fi *  râ  |  kın  *  *  *  sî  | 
c2_3/4d2 c2B2 c2d2 e2d2 c2 | 
w:  ne *  *  *  mi   | 
_3/4d3cc3Bc2 BAA4z2  | z4 A2B2 c_3/4dcB c6 | \
w:  dağ *  *  *  lar    |  Fi *  râ  | 
_3/4d3cB2 d2c2 d2c4B2  | 
w:  kın  *  *  *  sî  | 
c2_3/4d2 c2B2 c2d2 e2d2 c2 | _3/4d3cc3Bc2 BAA4z2  | \
w:  ne *  *  *  mi   |  dağ *  *  *  lar    | 
z4 c2_3/4d2 e2f2 g2_7/8a2 g2 | 
w:  Gö *  züm  | 
g3fe2 g2gf fef6  | f4 e2f2 _7/8a4 g4 f2 | \
w:  den  *  *  *  hûn_  |  *  i  *  dil   | 
fe fge3_3/4dc2 d2c4B2  | 
w:  çağ *  *  *  *  *  lar    | 
z4 c2_3/4d2 d4 c4 B2 | c3e=d2 c2_B3AA6  | \
w:  Gö *  züm  |  den  *  *  *  hûn_  | 
A4 A2_B2 c2_e2 =d2c2 B2 | 
w:  *  i  *  dil   | 
_BA G2c4B3AA4=d2  | e4 =d4 e8-e2 | e2 g2^f2 g2ba gfe4z2  | 
w:  çağ *  *  *  *  *  lar   SAZ  |  *  Fi ga  |  nın *  *  *  la   | 
z4 e2f2 a4 g2f2 e2 | fe fgf2 e2e2 {f}e=dd6  | \
w:  in *  ler   |  dağ *  *  *  *  *  lar    | 
z4 c2=d2 e2f2 g2_7/8a2 g2 | 
w:  Be *  nim   | 
g3fe2 g2gf fef6  | z4 e2f2 _7/8a4 g2f2 e2 | \
w:  çün  *  *  *  hep   |  ci *  han   | 
fe fge3_3/4dc2 d2c4B2  | 
w:  ağ *  *  *  *  *  lar    | 
z4 c2_3/4d2 d4 c4 B2 | c3e=d2 c2_B4A6  | \
w:  Fe *  lek   |  de  *  *  *  ka  | 
A4 A2_B2 c2_e2 =d2c2 B2 | _BA G2c4B3AA6  | 
w:  *  re *  ler   |  bağ *  *  *  *  *  lar    | 
|


